!!!OTL: WENN DIE SONNE FRUEH AUFGEHT
!!!ARE: Europa, Mitteleuropa, Deutschland
!!!SCT: F0338
!!!YEM: Copyright 1995, estate of Helmut Schaffrath.
**kern
*ICvox
*Ivox
*M4/4
*k[f#c#g#d#]
*E:
{8g#
8a
=1
4b
4b
4cc#
4a
=2
2.f#}
{8g#
8f#
=3
4e
4e
4e
4f#
=4
2g#
4r}
{8g#
8a
=5
4b
4b
4cc#
4dd#
=6
2ee
4r}
{8b
8b
=7
4b
8b
8b
4b
8b
8b
=8
4b
2r}
==
!!!AGN: Jugend - Lied, Tageslauf, Tier
!!!ONB: ESAC (Essen Associative Code) Database: FINK
!!!AMT: simple quadruple
!!!AIN: vox
!!!EED: Helmut Schaffrath
!!!EEV: 1.0
*-
